build/images/icons/refresh.svg

<svg width="20" height="20" viewBox="0 0 20 20" fill="none" xmlns="http://www.w3.org/2000/svg">
<path d="M9.99992 5.00004V7.50004L13.3333 4.16671L9.99992 0.833374V3.33337C6.31658 3.33337 3.33325 6.31671 3.33325 10C3.33325 11.3084 3.71659 12.525 4.36659 13.55L5.58325 12.3334C5.20825 11.6417 4.99992 10.8417 4.99992 10C4.99992 7.24171 7.24159 5.00004 9.99992 5.00004ZM15.6333 6.45004L14.4166 7.66671C14.7832 8.36671 14.9999 9.15837 14.9999 10C14.9999 12.7584 12.7583 15 9.99992 15V12.5L6.66658 15.8334L9.99992 19.1667V16.6667C13.6833 16.6667 16.6666 13.6834 16.6666 10C16.6666 8.69171 16.2833 7.47504 15.6333 6.45004Z"/>
</svg>

<svg width="20" height="20" fill="none" xmlns="http://www.w3.org/2000/svg"><path d="M10 5v2.5l3.333-3.333L10 .833v2.5A6.665 6.665 0 003.333 10a6.61 6.61 0 001.034 3.55l1.216-1.217A4.892 4.892 0 015 10c0-2.758 2.242-5 5-5zm5.633 1.45l-1.216 1.217c.366.7.583 1.491.583 2.333 0 2.758-2.242 5-5 5v-2.5l-3.333 3.333L10 19.167v-2.5A6.665 6.665 0 0016.667 10a6.609 6.609 0 00-1.034-3.55z"/></svg>
